src/assets/Icons/phone.svg

<svg width="56" height="56" viewBox="0 0 56 56" fill="none" xmlns="http://www.w3.org/2000/svg">
<rect x="4" y="4" width="48" height="48" rx="24" fill="#FEB477"/>
<path d="M38.0001 32.9201V35.9201C38.0012 36.1986 37.9441 36.4743 37.8326 36.7294C37.721 36.9846 37.5574 37.2137 37.3521 37.402C37.1469 37.5902 36.9046 37.7336 36.6408 37.8228C36.377 37.912 36.0974 37.9452 35.8201 37.9201C32.7429 37.5857 29.7871 36.5342 27.1901 34.8501C24.7739 33.3148 22.7254 31.2663 21.1901 28.8501C19.5 26.2413 18.4483 23.2711 18.1201 20.1801C18.0951 19.9036 18.1279 19.6249 18.2166 19.3617C18.3052 19.0986 18.4476 18.8568 18.6348 18.6517C18.822 18.4466 19.0499 18.2828 19.3038 18.1706C19.5578 18.0584 19.8324 18.0004 20.1101 18.0001H23.1101C23.5954 17.9953 24.0658 18.1672 24.4338 18.4836C24.8018 18.8001 25.0421 19.2395 25.1101 19.7201C25.2367 20.6802 25.4715 21.6228 25.8101 22.5301C25.9446 22.888 25.9737 23.277 25.894 23.651C25.8142 24.0249 25.6289 24.3682 25.3601 24.6401L24.0901 25.9101C25.5136 28.4136 27.5865 30.4865 30.0901 31.9101L31.3601 30.6401C31.6319 30.3712 31.9752 30.1859 32.3492 30.1062C32.7231 30.0264 33.1121 30.0556 33.4701 30.1901C34.3773 30.5286 35.32 30.7635 36.2801 30.8901C36.7658 30.9586 37.2095 31.2033 37.5266 31.5776C37.8437 31.9519 38.0122 32.4297 38.0001 32.9201Z" stroke="#B1580E" stroke-width="2" stroke-linecap="round" stroke-linejoin="round"/>
<rect x="4" y="4" width="48" height="48" rx="24" stroke="#FFF2E8" stroke-width="8"/>
</svg>

<svg width="56" height="56" fill="none" xmlns="http://www.w3.org/2000/svg"><rect x="4" y="4" width="48" height="48" rx="24" fill="#FEB477"/><path d="M38 32.92v3a2.001 2.001 0 0 1-2.18 2 19.79 19.79 0 0 1-8.63-3.07 19.499 19.499 0 0 1-6-6 19.788 19.788 0 0 1-3.07-8.67A1.999 1.999 0 0 1 20.11 18h3a2 2 0 0 1 2 1.72c.127.96.361 1.903.7 2.81a2 2 0 0 1-.45 2.11l-1.27 1.27a16 16 0 0 0 6 6l1.27-1.27a1.999 1.999 0 0 1 2.11-.45c.907.339 1.85.573 2.81.7A2 2 0 0 1 38 32.92Z" stroke="#B1580E" stroke-width="2" stroke-linecap="round" stroke-linejoin="round"/><rect x="4" y="4" width="48" height="48" rx="24" stroke="#FFF2E8" stroke-width="8"/></svg>
